!!!COM: Mozart
!!!OTL: 12 Variations on "Ah Vous dirais-je, Maman" for the Piano
!!!Variation: 10 a
**function	**harm	**kern	**kern
*	*	*clefF4	*clefG2
*	*	*k[]	*k[]
*M2/4	*M2/4	*M2/4	*M2/4
*C:	*C:	*C:	*C:
=241	=241	=241	=241
2T	C:maj	4CC 4C	16r
.	.	.	(16eLL
.	.	.	16cc
.	.	.	16eJJ)
*	*	*clefG2	*
.	.	4cc	16r
.	.	.	(16eLL
.	.	.	16g
.	.	.	16eJJ)
=242	=242	=242	=242
2T	C:maj/3	4gg	16r
.	.	.	(16eLL
.	.	.	16cc
.	.	.	16eJJ)
.	.	4gg	16r
.	.	.	(16eLL
.	.	.	16cc
.	.	.	16eJJ)
=243	=243	=243	=243
2T	F:maj	4aa	16r
.	.	.	(16fLL
.	.	.	16cc
.	.	.	16fJJ)
.	.	4aa	16r
.	.	.	(16fLL
.	.	.	16cc
.	.	.	16fJJ)
=244	=244	=244	=244
4T	C:maj/3	4gg	16r
.	.	.	(16eLL
.	.	.	16cc
.	.	.	16eJJ)
*	*	*clefF4	*
4T	C#:dim7	4C# 4c#	16r
.	.	.	(16b-LL
.	.	.	16ee 16gg
.	.	.	16b-JJ)
=245	=245	=245	=245
4T	D:maj	4D 4d	16r
.	.	.	(16aLL
.	.	.	16dd 16ff#
.	.	.	16aJJ)
4T	B:dim7	4BB 4B	16r
.	.	.	(16a-LL
.	.	.	16dd 16ff
.	.	.	16a-JJ)
=246	=246	=246	=246
4T	C:maj	4C 4c	16r
.	.	.	(16gLL
.	.	.	16cc 16ee
.	.	.	16gJJ)
4P	F#:dim7	4FF# 4F#	16r
.	.	.	(16aLL
.	.	.	16cc 16ee-
.	.	.	16aJJ)
=247	=247	=247	=247
2D	G:7	4GG 4G	16r
.	.	.	(16gLL
.	.	.	16cc 16dd
.	.	.	16gJJ)
.	.	4GG	16r
.	.	.	(16fLL
.	.	.	16b 16dd
.	.	.	16fJJ)
=248	=248	=248	=248
2T	C:maj	4C	4e 4cc
.	.	4CC	4r
*-	*-	*-	*-
!!!EMD: Edited in humdrumR 0.7.0.3 on 2024-01-19
